X:285
T: Humors of Whiskey
S: "Ag Deanamh Ceoil" (CCE)
Z: B.Black
L: 1/8
M: 9/8
R: slipjig
K: G
BcA BEE BEE|BcA BEE FED|BcA BEE BEE|FAA ABG FED :|
G2A BcA BcA|G2A Bcd ecA|G2A BcA Bcd|ecA ABG FED :|
